match-match-game/assets/images/not-ok.svg

<svg width="40" height="40" fill="none" xmlns="http://www.w3.org/2000/svg"><path fill-rule="evenodd" clip-rule="evenodd" d="M20 40c11.046 0 20-8.954 20-20S31.046 0 20 0 0 8.954 0 20s8.954 20 20 20z" fill="#F24E1E" fill-opacity=".08"/><path d="M25 12H15c-1.7 0-3 1.3-3 3v10c0 1.7 1.3 3 3 3h10c1.7 0 3-1.3 3-3V15c0-1.7-1.3-3-3-3zm-.3 11.3l-1.4 1.4-3.3-3.3-3.3 3.3-1.4-1.4 3.3-3.3-3.3-3.3 1.4-1.4 3.3 3.3 3.3-3.3 1.4 1.4-3.3 3.3 3.3 3.3z" fill="#F24E1E"/></svg>

<svg width="40" height="40" viewBox="0 0 40 40" fill="none" xmlns="http://www.w3.org/2000/svg">
<path fill-rule="evenodd" clip-rule="evenodd" d="M20 40C31.0457 40 40 31.0457 40 20C40 8.9543 31.0457 0 20 0C8.9543 0 0 8.9543 0 20C0 31.0457 8.9543 40 20 40Z" fill="#F24E1E" fill-opacity="0.08"/>
<path d="M25 12H15C13.3 12 12 13.3 12 15V25C12 26.7 13.3 28 15 28H25C26.7 28 28 26.7 28 25V15C28 13.3 26.7 12 25 12ZM24.7 23.3L23.3 24.7L20 21.4L16.7 24.7L15.3 23.3L18.6 20L15.3 16.7L16.7 15.3L20 18.6L23.3 15.3L24.7 16.7L21.4 20L24.7 23.3Z" fill="#F24E1E"/>
</svg>
